src/img/statistics.svg

<svg width="90" height="90" viewBox="0 0 90 90" fill="none" xmlns="http://www.w3.org/2000/svg">
<path d="M19.7493 22.8193H46.2251C47.9697 22.8193 47.9697 20.1207 46.2251 20.1207H19.7493C18.0047 20.1207 18.0047 22.8193 19.7493 22.8193Z" fill="#616F8A"/>
<path d="M19.7493 32.7177H40.1082C41.8528 32.7177 41.8528 30.019 40.1082 30.019H19.7493C18.0047 30.019 18.0047 32.7177 19.7493 32.7177Z" fill="#616F8A"/>
<path d="M37.2296 42.6179H19.7493C18.0047 42.6179 18.0047 39.9192 19.7493 39.9192H37.2296C38.9742 39.9192 38.9742 42.6179 37.2296 42.6179Z" fill="#616F8A"/>
<path fill-rule="evenodd" clip-rule="evenodd" d="M44.6098 75.6752H43.7158V62.4878C43.7158 61.7426 43.1119 61.1385 42.3665 61.1385H36.9515V56.382C36.9515 55.6368 36.3476 55.0326 35.6022 55.0326H28.8543C28.1089 55.0326 27.505 55.6368 27.505 56.382V64.5926H22.1006C21.3553 64.5926 20.7513 65.1968 20.7513 65.9419V75.6752H19.8573C19.112 75.6752 18.508 76.2793 18.508 77.0245C18.508 77.7697 19.112 78.3739 19.8573 78.3739H44.6096C45.355 78.3739 45.959 77.7697 45.959 77.0245C45.959 76.2793 45.355 75.6752 44.6098 75.6752ZM23.4501 75.6752V67.2913H27.4996V75.6752H23.4501ZM30.2038 75.6752V57.7313H34.2531V75.6752H30.2038ZM36.9677 75.6752V63.8372H41.0172V75.6752H36.9677Z" fill="#616F8A"/>
<path fill-rule="evenodd" clip-rule="evenodd" d="M83.4745 24.8619C87.5 28.8874 89.8135 34.2326 89.9892 39.9128C90.1639 45.5671 88.2103 51.0193 84.4879 55.2654C83.3378 56.5772 81.3087 54.7982 82.4587 53.4863C84.1911 51.5101 85.453 49.27 86.2514 46.9094L68.1362 42.109L54.8856 55.3597C61.0612 60.7328 70.0774 61.7275 77.2816 57.6905C78.8036 56.8382 80.1229 59.192 78.6007 60.0448C75.2884 61.9008 71.5012 62.8729 67.6979 62.8729C67.516 62.8729 67.3341 62.8685 67.1523 62.864V76.2412C67.1523 76.6001 67.0092 76.9443 66.7548 77.1976L54.2865 89.6071C54.0364 89.8561 53.6874 90 53.3346 90H11.1853C9.45721 90 8.05157 88.594 8.05157 86.8657V85.189L3.12829 85.1811C1.40582 85.1811 0.000179945 83.775 0.000179945 82.0468L0 3.13425C0 1.40601 1.40564 0 3.13351 0H15.5175C17.2621 0 17.2621 2.69868 15.5175 2.69868H3.13351C2.89369 2.69868 2.69866 2.89407 2.69866 3.13425V82.0466C2.69866 82.2868 2.89369 82.4822 3.13351 82.4822L8.05139 82.4903V10.9248C8.05139 9.19659 9.45721 7.79058 11.1851 7.79058H59.3736V3.13443C59.3736 2.89425 59.1784 2.69886 58.9386 2.69886H23.0739C21.3293 2.69886 21.3293 0.000179474 23.0739 0.000179474L58.9384 0C60.6665 0 62.0721 1.40601 62.0721 3.13425V7.7904H64.0182C65.7463 7.7904 67.1519 9.19641 67.1519 10.9246V18.359C70.4174 18.2748 73.6978 18.9038 76.7377 20.2443C76.7816 20.2587 76.8253 20.2756 76.8685 20.295C76.9108 20.3141 76.9516 20.3351 76.991 20.3578C79.3416 21.4297 81.543 22.9304 83.4745 24.8619ZM74.5081 22.253L66.6015 39.8265L52.9748 53.4535C46.2812 45.7762 46.5872 34.0783 53.8954 26.7701C59.4589 21.2065 67.5668 19.7015 74.5081 22.253ZM10.7501 86.8656V10.9246C10.7501 10.6845 10.9453 10.4891 11.1851 10.4891H64.0184C64.2582 10.4891 64.4534 10.6845 64.4534 10.9246V18.5923C59.8882 19.2663 55.4935 21.3556 51.987 24.8621C43.306 33.5432 43.306 47.6685 51.987 56.3498C55.4016 59.7641 59.7059 61.9278 64.4534 62.6298V74.776H55.1188C53.3909 74.776 51.9851 76.182 51.9851 77.9103V87.3011H11.1851C10.9453 87.3011 10.7501 87.1058 10.7501 86.8656ZM54.6837 85.3824V77.9103C54.6837 77.6701 54.8789 77.4747 55.1188 77.4747H62.5555L54.6837 85.3824ZM69.6138 39.7088L76.9703 23.3577C78.6226 24.2416 80.1742 25.3784 81.566 26.7702C86.2953 31.4998 88.111 38.1234 86.9367 44.2994L69.6138 39.7088Z" fill="#616F8A"/>
</svg>

<svg width="90" height="90" fill="none" xmlns="http://www.w3.org/2000/svg"><path d="M19.75 22.82h26.475c1.745 0 1.745-2.7 0-2.7H19.75c-1.744 0-1.744 2.7 0 2.7zm0 9.898h20.358c1.745 0 1.745-2.699 0-2.699H19.75c-1.744 0-1.744 2.699 0 2.699zm17.48 9.9H19.75c-1.745 0-1.745-2.699 0-2.699h17.48c1.744 0 1.744 2.699 0 2.699z" fill="#616F8A"/><path fill-rule="evenodd" clip-rule="evenodd" d="M44.61 75.675h-.894V62.488a1.35 1.35 0 0 0-1.35-1.35h-5.414v-4.756a1.35 1.35 0 0 0-1.35-1.35h-6.748a1.35 1.35 0 0 0-1.349 1.35v8.21h-5.404a1.35 1.35 0 0 0-1.35 1.35v9.733h-.894a1.35 1.35 0 1 0 0 2.699H44.61a1.35 1.35 0 0 0 0-2.699zm-21.16 0v-8.384h4.05v8.384h-4.05zm6.754 0V57.731h4.05v17.944h-4.05zm6.764 0V63.837h4.05v11.838h-4.05z" fill="#616F8A"/><path fill-rule="evenodd" clip-rule="evenodd" d="M83.475 24.862a22.182 22.182 0 0 1 6.514 15.05 22.172 22.172 0 0 1-5.501 15.353c-1.15 1.312-3.18-.467-2.03-1.779a19.376 19.376 0 0 0 3.793-6.577l-18.115-4.8-13.25 13.25c6.175 5.374 15.191 6.368 22.396 2.331 1.522-.852 2.84 1.502 1.319 2.355a22.388 22.388 0 0 1-11.449 2.819v13.377c0 .36-.143.703-.397.957l-12.468 12.41c-.25.248-.6.392-.952.392h-42.15a3.137 3.137 0 0 1-3.133-3.134v-1.677l-4.924-.008A3.136 3.136 0 0 1 0 82.047V3.134A3.137 3.137 0 0 1 3.134 0h12.384c1.744 0 1.744 2.699 0 2.699H3.133a.436.436 0 0 0-.435.435v78.913c0 .24.195.435.435.435l4.917.008V10.925a3.138 3.138 0 0 1 3.134-3.134h48.189V3.134a.436.436 0 0 0-.435-.435H23.074c-1.745 0-1.745-2.699 0-2.699h35.864a3.137 3.137 0 0 1 3.134 3.134V7.79h1.946a3.137 3.137 0 0 1 3.134 3.135v7.434a22.34 22.34 0 0 1 9.586 1.885 1.335 1.335 0 0 1 .253.114 22.155 22.155 0 0 1 6.484 4.504zm-8.967-2.609l-7.906 17.574-13.627 13.627c-6.694-7.678-6.388-19.376.92-26.684 5.564-5.564 13.672-7.069 20.613-4.517zM10.75 86.866V10.925c0-.24.195-.436.435-.436h52.833c.24 0 .435.195.435.436v7.667a22.149 22.149 0 0 0-12.466 6.27c-8.681 8.681-8.681 22.807 0 31.488 3.415 3.414 7.719 5.578 12.466 6.28v12.146H55.12a3.138 3.138 0 0 0-3.134 3.134v9.391h-40.8a.436.436 0 0 1-.435-.435zm43.934-1.484V77.91c0-.24.195-.435.435-.435h7.437l-7.872 7.907zm14.93-45.673l7.356-16.351a19.5 19.5 0 0 1 4.596 3.412c4.73 4.73 6.545 11.353 5.37 17.53l-17.322-4.591z" fill="#616F8A"/></svg>
